dist/assets/images/icon-3.svg

<svg width="140" height="140" viewBox="0 0 140 140" fill="none" xmlns="http://www.w3.org/2000/svg">
<g clip-path="url(#clip0_983_989)">
<path fill-rule="evenodd" clip-rule="evenodd" d="M119.733 12.6935C122.039 12.2746 124.209 12.8469 126.007 14.3483C127.806 15.8503 128.757 17.8828 128.758 20.2259V72.4959C128.758 88.9319 122.766 104.836 111.885 117.277C101.112 129.596 86.3481 137.658 70.3137 139.978C70.2098 139.993 70.1051 140 70.0003 140C69.8956 140 69.7909 139.993 69.687 139.978C53.6526 137.658 38.8888 129.596 28.1157 117.277C17.235 104.836 11.2429 88.9322 11.2429 72.4959V20.2259C11.2429 17.8828 12.1937 15.8503 13.9921 14.3486C15.7913 12.8466 17.961 12.274 20.2666 12.6935C35.5945 15.4763 49.1529 9.29138 66.3174 1.46149L66.8034 1.23996C67.5605 0.894807 68.3242 0.546666 69.0947 0.196299C69.6697 -0.0651074 70.3298 -0.0651074 70.9051 0.196299C71.7786 0.59308 72.6427 0.987242 73.4987 1.37767L73.6824 1.46149C90.847 9.29138 104.405 15.4754 119.733 12.6935ZM70.0001 135.601C101.025 130.954 124.382 103.882 124.382 72.4956V20.2259C124.382 19.1931 123.997 18.369 123.204 17.707C122.411 17.0455 121.532 16.8136 120.515 16.9982C117.645 17.5191 114.85 17.76 112.1 17.76C98.8708 17.7606 86.6588 12.1898 71.8734 5.44522L71.8668 5.4422L71.7152 5.37305C71.1472 5.11389 70.5756 4.85313 70.0001 4.59099C69.3733 4.87645 68.751 5.16028 68.1333 5.4422L68.1242 5.44633C50.2668 13.5923 36.1615 20.0266 19.4849 16.9982C19.2604 16.9575 19.0425 16.937 18.8308 16.937C18.0843 16.937 17.4139 17.1915 16.7962 17.7072C16.0035 18.369 15.6179 19.1931 15.6179 20.2259V72.4956C15.6179 103.882 38.9747 130.955 70.0001 135.601ZM65.7191 74.7643L90.9437 49.2884C93.8635 46.3523 98.6227 46.3386 101.556 49.2554C102.977 50.6685 103.763 52.55 103.768 54.554C103.774 56.5578 102.999 58.4437 101.586 59.8645C97.9984 63.4875 94.4131 67.1239 90.8275 70.7607C84.3594 77.321 77.6708 84.1047 71.0503 90.7252C69.6306 92.1448 67.7431 92.9266 65.7352 92.9266C63.7274 92.9266 61.8398 92.1448 60.4202 90.7252L43.4416 73.7466C42.0219 72.3272 41.2401 70.4397 41.2401 68.4318C41.2401 66.424 42.0219 64.5364 43.4416 63.1167C44.8613 61.697 46.7488 60.9153 48.7567 60.9153C50.7645 60.9153 52.6521 61.697 54.0718 63.1167L65.7191 74.7643ZM87.9043 67.4941C91.4282 63.9202 94.9514 60.3471 98.48 56.7831C99.0722 56.1875 99.3954 55.4014 99.393 54.5666C99.3905 53.7313 99.0632 52.947 98.4709 52.3581C97.2484 51.1423 95.2649 51.1478 94.0492 52.3704L65.7344 80.9673L50.9778 66.2107C50.3844 65.6173 49.5953 65.2905 48.7564 65.2905C47.9172 65.2905 47.1281 65.6173 46.535 66.2107C45.9416 66.804 45.6149 67.5929 45.6149 68.4321C45.6149 69.2713 45.9416 70.0601 46.535 70.6532L63.5136 87.6318C64.1069 88.2251 64.8958 88.5519 65.735 88.5519C66.5742 88.5519 67.3633 88.2251 67.9564 87.6318C74.536 81.0524 81.188 74.3059 87.6235 67.7789L87.712 67.6891L87.9043 67.4941Z" fill="#E91609"/>
<path fill-rule="evenodd" clip-rule="evenodd" d="M115.501 24.2008C99.2888 25.1767 84.2109 18.2943 70.9087 12.2207C70.3317 11.9571 69.6686 11.9571 69.0914 12.2207L69.0886 12.222C56.6443 17.904 42.648 24.2946 27.6213 24.2941C26.5861 24.2941 25.5443 24.2637 24.4995 24.2008C23.8982 24.1636 23.3075 24.3783 22.8684 24.7917C22.4295 25.2052 22.1804 25.7813 22.1804 26.3845V72.4959C22.1804 85.9064 26.9858 98.9895 35.7118 109.335C44.4137 119.652 56.4572 126.598 69.6244 128.893C69.7488 128.915 69.8745 128.926 70.0001 128.926C70.1256 128.926 70.2513 128.915 70.3758 128.893C83.5429 126.598 95.5867 119.652 104.288 109.335C113.014 98.9895 117.82 85.9064 117.82 72.4959V26.3845C117.82 25.7813 117.571 25.2052 117.132 24.7917C116.693 24.3783 116.102 24.1645 115.501 24.2008ZM70.0001 124.516C94.7951 120.003 113.445 97.7085 113.445 72.4956V28.6598C97.4354 28.9671 82.923 22.5118 70.0001 16.6154C57.0777 22.5118 42.5559 28.9647 26.5554 28.6598V72.4956C26.5554 97.7085 45.2047 120.003 70.0001 124.516Z" fill="white"/>
</g>
<defs>
<clipPath id="clip0_983_989">
<rect width="140" height="140" fill="white"/>
</clipPath>
</defs>
</svg>

<svg width="140" height="140" fill="none" xmlns="http://www.w3.org/2000/svg"><g clip-path="url(#clip0_983_989)" fill-rule="evenodd" clip-rule="evenodd"><path d="M119.733 12.694c2.306-.42 4.476.153 6.274 1.654 1.799 1.502 2.75 3.535 2.751 5.878v52.27c0 16.436-5.992 32.34-16.873 44.781-10.773 12.319-25.537 20.381-41.571 22.701a2.192 2.192 0 01-.627 0c-16.034-2.32-30.798-10.382-41.571-22.701-10.881-12.441-16.873-28.345-16.873-44.781v-52.27c0-2.343.95-4.376 2.75-5.877 1.798-1.502 3.968-2.075 6.274-1.655C35.594 15.476 49.153 9.29 66.317 1.46l.486-.221L69.095.196a2.188 2.188 0 011.81 0c.874.397 1.738.791 2.594 1.182l.183.083c17.165 7.83 30.723 14.014 46.051 11.232zM70 135.6c31.025-4.647 54.382-31.719 54.382-63.105v-52.27c0-1.033-.385-1.857-1.178-2.519-.793-.662-1.672-.893-2.689-.709-2.87.521-5.665.762-8.415.762-13.23 0-25.441-5.57-40.227-12.315l-.006-.003-.152-.069L70 4.591l-1.867.851-.009.004c-17.857 8.146-31.962 14.58-48.64 11.552a3.664 3.664 0 00-.653-.061c-.747 0-1.417.255-2.035.77-.793.662-1.178 1.486-1.178 2.519v52.27c0 31.386 23.357 58.459 54.382 63.105zm-4.28-60.837l25.224-25.476c2.92-2.936 7.679-2.95 10.612-.033a7.45 7.45 0 012.212 5.299 7.45 7.45 0 01-2.182 5.31c-3.588 3.623-7.173 7.26-10.758 10.897-6.469 6.56-13.157 13.344-19.778 19.964a7.468 7.468 0 01-5.315 2.202 7.467 7.467 0 01-5.315-2.202L43.442 73.747a7.466 7.466 0 01-2.202-5.315c0-2.008.782-3.896 2.202-5.315a7.467 7.467 0 015.315-2.202c2.008 0 3.895.782 5.315 2.202l11.647 11.647zm22.184-7.27c3.524-3.574 7.047-7.147 10.576-10.71a3.109 3.109 0 00.913-2.217 3.107 3.107 0 00-.922-2.209 3.13 3.13 0 00-4.422.012L65.734 80.967 50.978 66.211a3.121 3.121 0 00-2.222-.92 3.12 3.12 0 00-2.221.92 3.12 3.12 0 00-.92 2.221c0 .84.327 1.628.92 2.221l16.979 16.979c.593.593 1.382.92 2.221.92a3.12 3.12 0 002.221-.92c6.58-6.58 13.232-13.326 19.668-19.853l.088-.09.192-.195z" fill="#E91609"/><path d="M115.501 24.2c-16.212.977-31.29-5.906-44.592-11.98a2.187 2.187 0 00-1.818 0l-.002.002C56.644 17.904 42.648 24.295 27.62 24.294c-1.035 0-2.077-.03-3.121-.093a2.185 2.185 0 00-2.32 2.183v46.112c0 13.41 4.806 26.494 13.532 36.839 8.702 10.317 20.745 17.263 33.912 19.558a2.157 2.157 0 00.752 0c13.167-2.295 25.21-9.241 33.912-19.558 8.726-10.345 13.532-23.429 13.532-36.84v-46.11a2.188 2.188 0 00-2.319-2.184zm-45.5 100.316c24.794-4.513 43.444-26.808 43.444-52.02V28.66c-16.01.307-30.522-6.148-43.445-12.045-12.922 5.897-27.444 12.35-43.445 12.045v43.836c0 25.213 18.65 47.507 43.445 52.02z" fill="#fff"/></g><defs><clipPath id="clip0_983_989"><path fill="#fff" d="M0 0h140v140H0z"/></clipPath></defs></svg>
